!!!COM: Palestrina, Giovanni Perluigi da
!!!OPR: Ave Maria (1594)
!!!OTL: Credo
**kern	**kern	**kern	**kern
*Ibass	*Itenor	*Icalto	*Icant
!Bassus	!Tenor	!Altus	!Cantus
*clefF4	*clefGv2	*clefG2	*clefG2
*k[]	*k[]	*k[]	*k[]
*A:aeo	*A:aeo	*A:aeo	*A:aeo
*M4/2	*M4/2	*M4/2	*M4/2
=1	=1	=1	=1
0r	1c	0r	0r
.	1G	.	.
=2	=2	=2	=2
1F	1A	0r	0r
1C	2e	.	.
.	2e	.	.
=3	=3	=3	=3
1D	1f	0r	0r
2A	1e	.	.
2A	.	.	.
=4	=4	=4	=4
1B-	2r	0r	0r
.	2d	.	.
1A	2e	.	.
.	2f	.	.
=5	=5	=5	=5
2r	1g	0r	0r
2G	.	.	.
2A	2e	.	.
2B	2d	.	.
=6	=6	=6	=6
1c	4e	0r	0r
.	4f	.	.
.	4g	.	.
.	4e	.	.
2A	2f	.	.
2G	[2e	.	.
=7	=7	=7	=7
1A	4e]	0r	1cc
.	4d	.	.
.	2c	.	.
2E	2B	.	1g
2G	[2e	.	.
=8	=8	=8	=8
2.F	4e]	0r	1a
.	4d	.	.
.	1d	.	.
8E	.	.	.
8D	.	.	.
1E	.	.	2ee
.	2c#	.	2ee
=9	=9	=9	=9
1D	1d	1f	1ff
2r	1A	1c	1ee
2A	.	.	.
=10	=10	=10	=10
4B	0r	1d	2r
4c	.	.	.
4d	.	.	2dd
4B	.	.	.
2c	.	2a	2ee
2d	.	2a	2ff
=11	=11	=11	=11
2G	2r	1b-	1.gg
2G	2d	.	.
2c	2e	1a	.
2d	2f	.	2ff
=12	=12	=12	=12
1G	1g	2r	2ee
.	.	2g	4dd
.	.	.	4cc
1r	2f#	2a	1dd
.	2g	2b	.
=13	=13	=13	=13
0r	4c	2cc	1ee
.	4d	.	.
.	4e	4b	.
.	4f	4a	.
.	2g	2b	2.dd
.	2d	[2a	.
.	.	.	4cc
=14	=14	=14	=14
1r	0e	2a]	1b
.	.	2g#	.
[1A	.	1a	2a
.	.	.	[2cc
=15	=15	=15	=15
2A]	1r	1e	2cc]
2A	.	.	2cc
2G	[1d	1r	2b
2F#	.	.	2a
=16	=16	=16	=16
1G	2d]	1r	1b
.	2d	.	.
2.A	2c	2r	2.a
.	2c	[2a	.
4G	.	.	4b
=17	=17	=17	=17
4F	4A	2a]	1.cc
4G	4B	.	.
4A	4c	2a	.
4B	4d	.	.
2c	2e	2g	.
2d	[2f	2f	2b
=18	=18	=18	=18
1c	4f]	1g	1cc
.	4e	.	.
.	2e	.	.
2.F	2c	2a	1r
.	[2d	2f	.
4G	.	.	.
=19	=19	=19	=19
0A	2d]	1e	2r
.	4c#	.	1ee
.	4B	.	.
.	1c#	2r	.
.	.	[2a	2ee
=20	=20	=20	=20
0r	2d	2a]	2dd
.	2A	2a	2cc
.	2B	2g	2dd
.	2c	2e	[2ee
=21	=21	=21	=21
2r	2d	2f	2ee]
1d	2d	2f	2dd
.	1A	2e	2.ee
2c	.	[2a	.
.	.	.	4dd
=22	=22	=22	=22
2A	0r	2a]	2cc
2B	.	2g	2b
2c	.	2e	1a
2d	.	2f	.
=23	=23	=23	=23
2G	0r	2g	0r
1d	.	2a	.
.	.	2d	.
2c	.	[2a	.
=24	=24	=24	=24
1B-	1r	2a]	2r
.	.	2g	1dd
1A	2r	2.a	.
.	[2a	.	2cc
.	.	4g	.
=25	=25	=25	=25
1r	2a]	2f	2a
.	2g	2e	2b
2r	2e	1r	2cc
2d	2f	.	2dd
=26	=26	=26	=26
2c	2g	0r	2ee
2A	2a	.	2.ff
2B-	2d	.	.
.	.	.	4ee
4A	[2a	.	[2cc
4G	.	.	.
=27	=27	=27	=27
2F	2a]	1r	4cc]
.	.	.	4dd
2C	2g	.	1ee
1D	1f	2r	.
.	.	[2d	2dd
=28	=28	=28	=28
1.A	1e	2d]	0ee
.	.	2c	.
.	2r	2A	.
2G	[2e	2B	.
=29	=29	=29	=29
2E	2e]	2c	0r
2F	2d	2d	.
2G	2B	1e	.
2A	2c	.	.
=30	=30	=30	=30
2D	2d	4f	0r
.	.	4g	.
1A	2e	4a	.
.	.	4b	.
.	2A	2cc	.
2G	[2d	[2b	.
=31	=31	=31	=31
1F	4d]	4b]	0r
.	4c	4a	.
.	4c	1a	.
.	8B	.	.
.	8A	.	.
1E	2B	.	.
.	2B	2g#	.
=32	=32	=32	=32
1A	2A	2a	2r
.	1a	1cc	1ee
1r	.	.	.
.	2g	2b	2ee
=33	=33	=33	=33
1r	2f	2a	2dd
.	2e	2g	2cc
2r	2.d	2.a	1dd
[2d	.	.	.
.	4e	4g	.
=34	=34	=34	=34
2d]	4f	2f	1a
.	4g	.	.
2c	2a	2e	.
2B-	4d	4f	1r
.	4e	4g	.
2A	[2f	4a	.
.	.	4f	.
=35	=35	=35	=35
1G	2f]	1b-	0r
.	2e	.	.
1F	2f	2a	.
.	2a	2cc	.
=36	=36	=36	=36
0r	2a	2cc	1ee
.	2.g	2.b	.
.	.	.	2ee
.	4g	4b	.
.	2f	2a	[2dd
=37	=37	=37	=37
1r	2g	2b	4dd]
.	.	.	4dd
.	2e	2g	2cc#
2r	2d	1a	2dd
2d	2f	.	2dd
=38	=38	=38	=38
2d	2f	2r	1a
2.c	2.e	2a	.
.	.	2a	1r
4c	4e	.	.
2B	2d	[2g	.
=39	=39	=39	=39
2c	4e	4g]	1r
.	4d	4g	.
2A	1c	2f#	.
[1G	.	2g	2r
.	4B	2g	2dd
.	4A	.	.
=40	=40	=40	=40
1G]	2B	1d	2dd
.	2B	.	2dd
2r	1c	1g	1ee
2c	.	.	.
=41	=41	=41	=41
2c	1G	2g	1dd
2B	.	2g	.
4A	1r	1a	2r
4B	.	.	.
4c	.	.	2cc
4A	.	.	.
=42	=42	=42	=42
2B	0r	1g	2dd
2c	.	.	2ee
1F	.	2r	4a
.	.	.	4b
.	.	2f	4cc
.	.	.	4dd
=43	=43	=43	=43
0r	0r	2g	2b
.	.	2a	2cc
.	.	4d	1dd
.	.	4e	.
.	.	4f	.
.	.	4d	.
=44	=44	=44	=44
0r	2r	2e	2.cc
.	2c	1a	.
.	.	.	8b
.	.	.	8a
.	2d	.	1b
.	2e	2g#	.
=45	=45	=45	=45
2r	4A	1a	1a
.	4B	.	.
2F	4c	.	.
.	4d	.	.
2G	4e	1r	2r
.	4d	.	.
2A	[2f	.	2cc
=46	=46	=46	=46
4D	4f]	0r	1dd
4E	4e	.	.
4F	1d	.	.
4G	.	.	.
2E	.	.	1ee
2E	2c#	.	.
=47	=47	=47	=47
1D	1d	1f	2a
.	.	.	2.dd
2r	1r	2g	.
.	.	.	4b
2F	.	2a	2cc
=48	=48	=48	=48
2G	2r	2d	2b
2A	2c	1a	2ee
2D	2d	.	2ff
2A	2e	[2cc	4ee
.	.	.	4dd
=49	=49	=49	=49
2c	2A	4cc]	2ee
.	.	4b-	.
2.d	2d	4a	2.ff
.	.	4g	.
.	2f	2a	.
4c	.	.	4ee
4B-	2g	[2b-	4dd
4A	.	.	4cc
=50	=50	=50	=50
2G	4g	2b-]	4b-
.	4f	.	4cc
2B-	4e	2g	1dd
.	4d	.	.
1A	1e	[1a	.
.	.	.	2cc#
=51	=51	=51	=51
2r	2.f	1a]	0dd
1d	.	.	.
.	4e	.	.
.	4d	2r	.
.	4c	.	.
2G	4B	[2g	.
.	4A	.	.
=52	=52	=52	=52
2B	1G	2g]	2r
2B	.	2d	1dd
2.d	1r	2f	.
.	.	2f	2a
4c	.	.	.
=53	=53	=53	=53
4A	2r	1e	2cc
4B	.	.	.
2c	1g	.	2cc
1G	.	[1d	1b
.	2d	.	.
=54	=54	=54	=54
2r	2f	1d]	1a
1d	2f	.	.
.	1e	2r	1r
2c	.	[2g	.
=55	=55	=55	=55
2B	2d	2g]	1r
2d	1a	2f	.
2c	.	2e	2r
2B	2g	2d	[2dd
=56	=56	=56	=56
1A	2f	1a	2dd]
.	2e	.	2cc
1G	2g	1d	2b
.	4g	.	2dd
.	4f	.	.
=57	=57	=57	=57
2A	4e	1r	2cc
.	4d	.	.
2E	2.e	.	2b
1F	.	2r	2.a
.	8d	.	.
.	8c	.	.
.	2d	[2a	.
.	.	.	4b
=58	=58	=58	=58
1E	1e	2a]	2cc
.	.	2g	2b
1r	1A	[1cc	2r
.	.	.	[2ee
=59	=59	=59	=59
0r	0r	2cc]	2ee]
.	.	2b	2dd
.	.	4a	[1ff
.	.	4g	.
.	.	4f	.
.	.	4e	.
=60	=60	=60	=60
0r	0r	2d	2ff]
.	.	2e	2ee
.	.	2f	4dd
.	.	.	4cc
.	.	[2g	4b
.	.	.	4a
=61	=61	=61	=61
1r	0r	4g]	2g
.	.	4e	.
.	.	2f	2a
2r	.	2g	2b
2A	.	2e	[2cc
=62	=62	=62	=62
2F	1r	1d	4cc]
.	.	.	4a
2G	.	.	2b
2A	2r	1c	1cc
[2c	2e	.	.
=63	=63	=63	=63
2c]	2c	1r	0r
2B	2d	.	.
4A	2e	1a	.
4G	.	.	.
4F	[2f	.	.
4E	.	.	.
=64	=64	=64	=64
2D	2f]	2f	0r
2E	4e	2g	.
.	4d	.	.
[1F	4c	2a	.
.	4B	.	.
.	4A	[2cc	.
.	8B	.	.
.	8c	.	.
=65	=65	=65	=65
2F]	2d	2cc]	1r
2G	2d	2b	.
1A	2c	[1a	2r
.	2c	.	2ee
=66	=66	=66	=66
0r	2A	2a]	2cc
.	2B	4g	2dd
.	.	4f	.
.	2c	2e	2ee
.	[2d	2a	[2ff
=67	=67	=67	=67
0r	2d]	2f	2ff]
.	4c	2g	4ee
.	4B	.	4dd
.	2A	1a	4cc
.	.	.	4b
.	4A	.	4cc
.	4B	.	4dd
=68	=68	=68	=68
0r	4c	2g	2ee
.	4d	.	.
.	4e	2cc	2ee
.	4f	.	.
.	4g	4b	4dd
.	4a	4a	4cc
.	2f	[2a	4cc
.	.	.	8b
.	.	.	8a
=69	=69	=69	=69
1r	1e	2a]	1b
.	.	2g#	.
1F	[1A	1a	2a
.	.	.	2a
=70	=70	=70	=70
1D	1A]	1r	1f
2C	2r	1g	1e
[2C	2e	.	.
=71	=71	=71	=71
4C]	1c	1e	2.g
4D	.	.	.
4E	.	.	.
4F	.	.	4a
2.G	2B	1d	4b
.	.	.	4cc
.	[2G	.	2dd
4F	.	.	.
=72	=72	=72	=72
1E	4G]	1g	1ee
.	4A	.	.
.	4B	.	.
.	4c	.	.
2.D	4d	2.f	1a
.	4e	.	.
.	[2f	.	.
4E	.	4e	.
=73	=73	=73	=73
4F	2f]	2d	[0a
4G	.	.	.
2A	2e	2c	.
1D	[1d	1f	.
=74	=74	=74	=74
1A	2d]	1e	1a]
.	2c#	.	.
1r	1r	1r	1r
=75	=75	=75	=75
1F	1f	1a	1cc
1C	1e	1g	1cc
=76	=76	=76	=76
1D	1d	1f	1a
1A	1c	2e	2.a
.	.	2f	.
.	.	.	4g
=77	=77	=77	=77
1B-	1d	2f	2f
.	.	4e	2g
.	.	4d	.
1A	1e	2c	1a
.	.	2A	.
=78	=78	=78	=78
2r	1A	2.c	2r
2A	.	.	1a
.	.	4d	.
[1A	2.c	1e	.
.	.	.	[2cc
.	4d	.	.
=79	=79	=79	=79
2A]	4e	2c	2cc]
.	4f	.	.
2G	2g	4d	2b
.	.	4e	.
1F	2c	4f	2a
.	.	4g	.
.	2f	2a	[2dd
=80	=80	=80	=80
0G	2.e	0g	2dd]
.	.	.	1cc
.	8d	.	.
.	8c	.	.
.	1d	.	.
.	.	.	2b
=81	=81	=81	=81
1A	2c	2e	1cc
.	2.A	1e	.
2r	.	.	[1a
.	4B	.	.
[2A	4c	2e	.
.	4d	.	.
=82	=82	=82	=82
2A]	2e	4c	2a]
.	.	4d	.
2A	2c	4e	2cc
.	.	4f#	.
2G	2d	2g	2b
2F#	2d	[2a	2a
=83	=83	=83	=83
1.G	1.d	2a]	1.b
.	.	1g	.
2D	2d	2f#	2a
=84	=84	=84	=84
0D	1d	1f#	1a
.	1f#	1a	[1dd
=85	=85	=85	=85
0r	2.g	1b	1dd]
.	4f	.	.
.	4e	2g	[1ee
.	4d	.	.
.	4c	[2cc	.
.	4B	.	.
=86	=86	=86	=86
0r	2A	2cc]	2ee]
.	2B	2.b	2dd
.	2.c	.	1cc
.	.	4a	.
.	.	[2a	.
.	4d	.	.
=87	=87	=87	=87
0r	2e	2a]	1b
.	2e	2g#	.
.	2A	2a	1a
.	[2d	2f	.
=88	=88	=88	=88
1G	2d]	2.g	1b
.	1e	.	.
.	.	4f	.
[1A	.	2.e	2.cc
.	2c	.	.
.	.	4d	4b
=89	=89	=89	=89
2A]	2f	2c	2a
2G	1e	2g	2b
1F	.	1a	2cc
.	[2d	.	2dd
=90	=90	=90	=90
0E	2d]	0g	0ee
.	4c#	.	.
.	4B	.	.
.	1c#	.	.
=91	=91	=91	=91
0D	0d	0f#	0a
*	*	*	*-
!! Crucifixus
*Itenor	*Icalto	*Icant
!Tenor	!Altus	!Cantus
*clefGv2	*clefG2	*clefG2
*k[]	*k[]	*k[]
*A:aeo	*A:aeo	*A:aeo
*M4/2	*M4/2	*M4/2
=92	=92	=92
0r	0r	1.cc
.	.	2a
=93	=93	=93
0r	1r	1ee
.	[1f	1a
=94	=94	=94
0r	2f]	2.dd
.	2d	.
.	.	4dd
.	1a	2cc
.	.	2cc
=95	=95	=95
0r	1d	1ff
.	2.a	[1ee
.	4a	.
=96	=96	=96
1.c	2g	1ee]
.	2g	.
.	1cc	2.a
2A	.	.
.	.	4a
=97	=97	=97
1e	1b	2g
.	.	2g
1A	2r	1cc
.	2a	.
=98	=98	=98
2.d	2.f	2.a
4d	4g	4b
2c	4a	4cc
.	4b	4dd
2c	[2cc	2ee
=99	=99	=99
1f	4cc]	4a
.	4b	4b
.	1a	4cc
.	.	4a
1e	.	1b
.	2g#	.
=100	=100	=100
2r	0a	2a
2c	.	2ee
2.d	.	2.ff
4c	.	4ee
=101	=101	=101
2c	2r	2ee
2B	2g	2dd
4A	2.a	4cc
4G	.	4b
4A	.	4cc
4B	4g	4dd
=102	=102	=102
2c	2g	2ee
2d	2f	1dd
2.A	1e	.
.	.	4cc
4G	.	4b
=103	=103	=103
4A	2e	1cc
4B	.	.
4c	1a	.
4d	.	.
1e	.	2b
.	2g	[2ee
=104	=104	=104
0r	2cc	2ee]
.	2b	2dd
.	2a	2ff
.	2cc	2ee
=105	=105	=105
0r	2b	2dd
.	2.a	2ff
.	.	2ee
.	4g	.
.	4f	[2dd
.	4e	.
=106	=106	=106
2r	1f	4dd]
.	.	4cc
1a	.	4cc
.	.	8b
.	.	8a
.	1e	1b
2g	.	.
=107	=107	=107
2f	2a	1cc
2e	2g	.
2d	2b-	1dd
2f	2a	.
=108	=108	=108
2e	2g	2cc
2.d	2.f	2b-
.	.	2a
4c	4e	.
4c	[2e	[2g
8B-	.	.
8A	.	.
=109	=109	=109
1B-	4e]	4g]
.	4d	4f
.	1d	4f
.	.	8e
.	.	8d
1A	.	1e
.	2c#	.
=110	=110	=110
2r	1d	2.f
2d	.	.
.	.	4g
2d	2r	1a
2d	2a	.
=111	=111	=111
1f	2a	0r
.	2a	.
2e	1cc	.
2a	.	.
=112	=112	=112
2g	2b	1r
2f	2a	.
2e	2g	2r
[2d	[2f	2a
=113	=113	=113
2d]	2f]	2a
4c	4e	2a
4B	4d	.
4A	2e	1cc
4B	.	.
4c	2a	.
4d	.	.
=114	=114	=114
1e	2g	2b
.	2cc	2ee
2r	2b	2dd
2A	2a	[2cc
=115	=115	=115
1c	1e	4cc]
.	.	4dd
.	.	4ee
.	.	4cc
2B	2r	2dd
2A	2e	2cc
=116	=116	=116
1e	1g	1b
2d	2f	1r
4c	2e	.
4B	.	.
=117	=117	=117
4A	1a	1r
4B	.	.
4c	.	.
4d	.	.
2e	2g	2r
[2d	2f	2a
=118	=118	=118
2d]	1e	1ee
2c#	.	.
1d	2r	1ff
.	2d	.
=119	=119	=119
1r	1a	2ee
.	.	2cc
2r	1cc	4ee
.	.	4dd
2A	.	4ee
.	.	4ff
=120	=120	=120
1e	2b	4gg
.	.	4ff
.	2g	4ee
.	.	4dd
1f	4a	2cc
.	4g	.
.	4a	2dd
.	4b	.
=121	=121	=121
2e	1.cc	0ee
2c	.	.
4e	.	.
4d	.	.
4e	4b	.
4f	4a	.
=122	=122	=122
4g	1b	2r
4f	.	.
4e	.	1ee
4d	.	.
2c	2a	.
2d	[2a	[2dd
=123	=123	=123
1e	2a]	2dd]
.	1g	2cc
1d	.	2.dd
.	2f#	.
.	.	4cc
=124	=124	=124
0r	2.g	2b
.	.	2.ee
.	4f	.
.	2e	.
.	.	4dd
.	[2a	4cc
.	.	4b
=125	=125	=125
2r	2a]	2cc
1e	4g	4b
.	4f	4a
.	2e	2g
[2d	2f	2a
=126	=126	=126
2d]	2d	2b
2c	1g	2cc
2.d	.	1a
.	2f#	.
4c	.	.
=127	=127	=127
2B	0g	1g
2.e	.	.
.	.	2r
4d	.	.
4c	.	[2ee
4B	.	.
=128	=128	=128
2c	2r	2ee]
2B	2g	1dd
1A	2f	.
.	2e	2cc
=129	=129	=129
2r	2d	2.dd
1a	2d	.
.	.	4cc
.	2.e	2b
[2g	.	[2ee
.	4d	.
=130	=130	=130
2g]	2c	2ee]
2f	2d	4dd
.	.	4cc
2.g	1e	1b
4f	.	.
=131	=131	=131
2e	1A	2.cc
2.a	.	.
.	.	4dd
.	1r	2ee
4g	.	.
4f	.	[2ff
4e	.	.
=132	=132	=132
2d	1r	2ff]
2c	.	1ee
1f	2r	.
.	[2a	2dd
=133	=133	=133
1e	2a]	2cc
.	1g	2b
2r	.	2.a
2d	2f#	.
.	.	4b
=134	=134	=134
2c	2.g	2cc
2B	.	2dd
.	4f	.
2.c	2e	2.ee
.	[2a	.
4B	.	4dd
=135	=135	=135
2A	4a]	2ee
.	4g	.
1d	4f	1ff
.	4e	.
.	2d	.
2c	2e	2ee
=136	=136	=136
2B-	1f	2dd
2A	.	2cc
1G	1g	1b-
=137	=137	=137
0d	0f#	0a
*-	*-	*-
!! Et iterum
**kern	**kern	**kern	**kern
*Ibass	*Itenor	*Icalto	*Icant
!Bassus	!Tenor	!Altus	!Cantus
*clefF4	*clefGv2	*clefG2	*clefG2
*k[]	*k[]	*k[]	*k[]
*A:aeo	*A:aeo	*A:aeo	*A:aeo
*M4/2	*M4/2	*M4/2	*M4/2
=138	=138	=138	=138
0r	1d	0r	0r
.	2d	.	.
.	2d	.	.
=139	=139	=139	=139
1A	2c	0r	0r
.	2A	.	.
2A	2c	.	.
2A	2c	.	.
=140	=140	=140	=140
2G	2B	0r	0r
2E	4G	.	.
.	4A	.	.
2G	4B	.	.
.	4c	.	.
2F	[2d	.	.
=141	=141	=141	=141
1E	2d]	1r	0r
.	2c	.	.
2.D	[1f	1a	.
4E	.	.	.
=142	=142	=142	=142
4F	2f]	2a	0r
4G	.	.	.
4A	4e	2a	.
4B	4d	.	.
4c	2.e	2g	.
4B	.	.	.
4c	.	2e	.
4d	4d	.	.
=143	=143	=143	=143
2e	2c	2g	0r
1d	2d	2f	.
.	2A	2.e	.
2c#	2a	.	.
.	.	8d	.
.	.	8e	.
=144	=144	=144	=144
2.d	4a	4f	1dd
.	4g	4g	.
.	4f	1a	.
4c	4e	.	.
1B-	2d	.	2dd
.	2d	2g	2dd
=145	=145	=145	=145
0A	0e	2a	2cc
.	.	4r	2a
.	.	4a	.
.	.	2a	1cc
.	.	2a	.
=146	=146	=146	=146
0r	1r	2g	2b
.	.	2e	4g
.	.	.	4a
.	2r	2g	4b
.	.	.	4cc
.	2d	[2f	2dd
=147	=147	=147	=147
0r	2d	4f]	2.a
.	.	4e	.
.	2d	4f	.
.	.	4g	4b
.	2c	1a	4cc
.	.	.	4dd
.	2A	.	[2ee
=148	=148	=148	=148
0r	2c	4g	2ee]
.	.	4f	.
.	2B-	4e	1dd
.	.	4d	.
.	1A	1e	.
.	.	.	2cc#
=149	=149	=149	=149
2.D	2r	1d	1dd
.	1f	.	.
4E	.	.	.
4F	.	1a	2r
4G	.	.	.
4A	[2e	.	[2cc
4B	.	.	.
=150	=150	=150	=150
2c	2e]	1g	2cc]
2G	2.d	.	1b
1A	.	1e	.
.	8c#	.	.
.	8B	.	.
.	2c#	.	[2a
=151	=151	=151	=151
2D	2d	2f	4a]
.	.	.	8g
.	.	.	8f
2E	2B	4e	2g
.	.	4d	.
2.F	4A	2c	2.a
.	4B	.	.
.	[2c	2c	.
4E	.	.	4g
=152	=152	=152	=152
1D	4c]	1d	2f
.	8B	.	.
.	8A	.	.
.	2B	.	2f
1C	2.c	2r	[1e
.	.	[2g	.
.	4B	.	.
=153	=153	=153	=153
2r	1A	2g]	2e]
1c	.	2f	4d
.	.	.	4c
.	1G	1g	1d
2B	.	.	.
=154	=154	=154	=154
1c	0r	2e	1g
.	.	2g	.
2A	.	2f	1r
2c	.	2e	.
=155	=155	=155	=155
2B	1r	2g	2r
2A	.	1a	1cc
1d	2r	.	.
.	[2f	4g	2b
.	.	4f	.
=156	=156	=156	=156
1c	2f]	2g	1cc
.	2e	2.cc	.
1F	1f	.	2a
.	.	4b	.
.	.	2a	2cc
=157	=157	=157	=157
2G	2d	2g	2b
2.A	2f	2.c	2a
.	2e	.	2cc
4G	.	4B	.
2F	2d	2A	[2dd
=158	=158	=158	=158
1E	1g	1G	2dd]
.	.	.	2cc#
2.D	2.f	2A	1dd
.	.	[2a	.
4E	4e	.	.
=159	=159	=159	=159
2F	1d	2a]	2r
2G	.	2g	1dd
1A	1r	2f	.
.	.	2e	2cc
=160	=160	=160	=160
0r	0r	2d	2b
.	.	2f	2a
.	.	2e	2g
.	.	4d	2b
.	.	4e	.
=161	=161	=161	=161
0r	1r	4f	4a
.	.	4g	4b
.	.	2.a	4cc
.	.	.	4dd
.	2r	.	2ee
.	.	4g	.
.	[2d	4f	[2ff
.	.	4e	.
=162	=162	=162	=162
0r	2d]	2f	2ff]
.	2e	2g	1ee
.	2f	2a	.
.	2g	2b	2dd
=163	=163	=163	=163
2r	2.c	2cc	2ee
1A	.	1cc	1ee
.	4d	.	.
.	4e	.	.
.	4f	.	.
2B	[2g	2b	2dd
=164	=164	=164	=164
2c	2g]	1a	2cc
2d	2f#	.	2a
2.G	[1g	1g	2.b
4A	.	.	4cc
=165	=165	=165	=165
4B	2g]	0r	1dd
4c	.	.	.
1d	2f	.	.
.	1e	.	1ee
2c#	.	.	.
=166	=166	=166	=166
2d	2d	2r	2a
1D	1d	1a	1ff
2D	2d	2a	2ff
=167	=167	=167	=167
2A	2c	1a	2ee
2A	2A	.	2cc
2G	2B	2d	2dd
2F	2A	2a	2dd
=168	=168	=168	=168
1E	1B	2a	1ee
.	.	2g	.
[1D	[1d	2a	[1ff
.	.	2b-	.
=169	=169	=169	=169
2D]	2d]	1a	2ff]
2C#	2e	.	2ee
1D	1f	1a	1dd
=170	=170	=170	=170
1A	1e	2r	2.cc
.	.	1a	.
.	.	.	8b
.	.	.	8a
[1A	2r	.	4cc
.	.	.	4b
.	[2e	2a	4cc
.	.	.	4dd
=171	=171	=171	=171
2A]	2e]	1cc	1ee
2A	2e	.	.
1d	1f	2b-	1r
.	.	[2a	.
=172	=172	=172	=172
2c	2e	2a]	0r
2B-	2d	1g	.
2A	2c	.	.
2A	2c	2f#	.
=173	=173	=173	=173
1G	2d	2g	1.dd
.	1g	1b-	.
[1D	.	.	.
.	2f	2a	2dd
=174	=174	=174	=174
2D]	2.f	1a	2.dd
2D	.	.	.
.	4e	.	4ee
2D	2d	1a	2ff
2C#	2e	.	2ee
=175	=175	=175	=175
1D	1f	1a	1dd
1A	2.e	1a	2cc
.	.	.	2ee
.	4d	.	.
=176	=176	=176	=176
1A	2c	2r	4ee
.	.	.	4dd
.	2A	2a	4cc
.	.	.	4b
2A	2e	2cc	2a
2A	2e	2cc	2a
=177	=177	=177	=177
2A	2e	2cc	2a
2G#	2e	2b	2b
1A	1e	1a	1cc
=178	=178	=178	=178
1E	1e	1g#	1b
[1A	2r	[1a	[1cc
.	[2e	.	.
=179	=179	=179	=179
2A]	2e]	2a]	2cc]
2F	2f	2a	2cc
2F	2f	2a	2cc
2G	2d	2g	2b
=180	=180	=180	=180
1D	1.d	2f	2a
.	.	4d	4f
.	.	4e	4g
1r	.	4f	4a
.	.	4g	4b
.	4c	4a	4cc
.	4B	4b	4dd
=181	=181	=181	=181
2r	1A	2cc	2ee
4D	.	1a	1ff
4E	.	.	.
4F	1a	.	.
4G	.	.	.
4A	.	[2cc	[2ee
4B	.	.	.
=182	=182	=182	=182
2c	1g	4cc]	2ee]
.	.	4g	.
2G	.	2b-	1dd
1A	1e	1a	.
.	.	.	2cc#
=183	=183	=183	=183
1D	2f	2r	1dd
.	2f	2a	.
1r	2e	2g	2r
.	2d	2f	2dd
=184	=184	=184	=184
0r	1e	1g	2cc
.	.	.	2b
.	[1A	2e	1cc
.	.	4A	.
.	.	4B	.
=185	=185	=185	=185
0r	2A]	4c	2a
.	.	4d	.
.	2A	4e	2cc
.	.	4f#	.
.	2G	2g	2b
.	2F#	[2a	2a
=186	=186	=186	=186
1r	4G	2a]	1b
.	4A	.	.
.	4B	1g	.
.	4c	.	.
2r	1d	.	1a
2d	.	2f	.
=187	=187	=187	=187
2c	1r	2e	2cc
2B	.	2d	2dd
2.c	2r	2.e	2.g
.	2g	.	.
4B	.	4d	4g
=188	=188	=188	=188
1A	2f	2c	0a
.	2e	2c	.
2r	2.f	4d	.
.	.	4e	.
4D	.	4f	.
4E	4e	4g	.
=189	=189	=189	=189
4F	2d	1a	0r
4G	.	.	.
4A	2f	.	.
4B	.	.	.
2c	2e	1r	.
[2d	2d	.	.
=190	=190	=190	=190
2d]	1e	1r	2r
2c#	.	.	2ee
1d	2r	1a	2.ff
.	2d	.	.
.	.	.	4ff
=191	=191	=191	=191
0r	2.a	2.cc	2ee
.	.	.	2ff
.	4a	4cc	.
.	2g	2b	2.ee
.	2a	2cc	.
.	.	.	8dd
.	.	.	8cc
=192	=192	=192	=192
1r	2f	2a	2dd
.	2e	2g	2ee
1D	1d	1a	1ff
=193	=193	=193	=193
2.A	2c	2a	0ee
.	2c	2A	.
4A	.	.	.
2G	2B	2.e	.
2A	2c	.	.
.	.	4e	.
=194	=194	=194	=194
2F	4A	2d	0r
.	4B	.	.
2E	1c	2e	.
1D	.	2f	.
.	2B	2f	.
=195	=195	=195	=195
1C	2c	1e	2r
.	1g	.	1ee
2r	.	1c	.
[2c	2g	.	2ee
=196	=196	=196	=196
2c]	1g	2.cc	1.ee
2c	.	.	.
.	.	4cc	.
2c	1g	2cc	.
2G	.	[2b	2dd
=197	=197	=197	=197
1A	1e	2b]	1cc
.	.	1a	.
1E	1e	.	2b
.	.	2g	[2cc
=198	=198	=198	=198
2F	1.d	2a	2cc]
2G	.	2g	1b
1A	.	[1e	.
.	2c	.	[2a
=199	=199	=199	=199
1E	1B	1e]	4a]
.	.	.	4g#
.	.	.	2g#
1A	1c#	1e	1a
=200	=200	=200	=200
2r	2r	2r	2r
1A	1e	1a	1cc
2A	2e	2a	2cc
=201	=201	=201	=201
1d	1f	1a	1dd
1c	1g	1cc	1ee
=202	=202	=202	=202
0r	2.g	2.b	2.dd
.	4f	4a	4dd
.	2g	2b	2ee
.	2a	2cc	2ee
=203	=203	=203	=203
1r	4d	2a	1ff
.	4e	.	.
.	4f	2a	.
.	4g	.	.
[1A	1a	2.cc	2ee
.	.	.	2ee
.	.	4b	.
=204	=204	=204	=204
2A]	2e	2a	2cc
2B	2d	2g	2.dd
1c	1e	2a	.
.	.	.	4cc
.	.	[2g	[2cc
=205	=205	=205	=205
1d	1f	4g]	4cc]
.	.	4f	8b
.	.	.	8a
.	.	1f	2b
[1c	1g	.	2.cc
.	.	4e	.
.	.	4d	8b
.	.	.	8a
=206	=206	=206	=206
1c]	1r	2e	2g
.	.	4c	2.gg
.	.	4d	.
1r	1c	4e	.
.	.	4f	4ff
.	.	4g	2ee
.	.	4a	.
=207	=207	=207	=207
0r	1G	4b	1dd
.	.	4cc	.
.	.	1b	.
.	1A	.	1cc
.	.	[2a	.
=208	=208	=208	=208
1r	1e	4a]	2b
.	.	8g	.
.	.	8f	.
.	.	2g	2.cc
1F	1f	1a	.
.	.	.	4b
.	.	.	2a
=209	=209	=209	=209
1C	1e	1r	1g
1D	4d	1f	1r
.	4e	.	.
.	4f	.	.
.	4d	.	.
=210	=210	=210	=210
1A	2e	1c	0r
.	2.f	.	.
1B-	.	1d	.
.	4d	.	.
.	[2g	.	.
=211	=211	=211	=211
1A	4g]	1a	0r
.	4f	.	.
.	1f	.	.
2G	.	1b-	.
2G	2e	.	.
=212	=212	=212	=212
4F	2f	1a	1cc
4G	.	.	.
4A	4c	.	.
4B	4d	.	.
2.c	4e	2r	1g
.	4f	.	.
.	[2g	2e	.
4B	.	.	.
=213	=213	=213	=213
2A	2g]	2c	1a
1d	2f	2d	.
.	1e	1A	1ee
2c#	.	.	.
=214	=214	=214	=214
1d	1d	2a	1ff
.	.	4f	.
.	.	4g	.
2.A	1r	4a	2ee
.	.	4b	.
.	.	[2cc	4cc
4B	.	.	4dd
=215	=215	=215	=215
4c	0r	2cc]	4ee
4d	.	.	4ff
2e	.	2b	1gg
2c	.	1a	.
2d	.	.	2ff
=216	=216	=216	=216
1A	2r	1.cc	2ee
.	4c	.	1ee
.	4d	.	.
1r	4e	.	.
.	4f	.	.
.	[2g	4b	4dd
.	.	4a	4cc
=217	=217	=217	=217
0r	2g]	2b	4dd
.	.	.	4cc
.	2f	2.a	4b
.	.	.	4a
.	1e	.	1b
.	.	8g	.
.	.	8f#	.
.	.	2g	.
=218	=218	=218	=218
1F	2r	2c	1a
.	4A	4c	.
.	4B	4d	.
1C	4c	4e	1r
.	4d	4f	.
.	[2e	[2g	.
=219	=219	=219	=219
1D	2e]	4g]	2r
.	.	8f	.
.	.	8e	.
.	1d	2f	4a
.	.	.	4b
1A	.	2e	4cc
.	.	.	4dd
.	2c	2A	[2ee
=220	=220	=220	=220
1B-	1d	2r	4ee]
.	.	.	4dd
.	.	4d	1dd
.	.	4e	.
1A	2r	4f	.
.	.	4g	.
.	4A	[2a	2cc
.	4B	.	.
=221	=221	=221	=221
2F	4c	2a]	2a
.	4d	.	.
2C	2e	1g	2cc
1D	2.d	.	2b
.	.	2f	[2a
.	4c	.	.
=222	=222	=222	=222
1E	1B	1e	2a]
.	.	.	2g#
[1A	[1c#	[1e	[1a
=223	=223	=223	=223
1A]	1c#]	1e]	1a]
==	==	==	==
*-	*-	*-	*-
!!!CDT: 1525/^1526/-1594/2/2
!!!OCY: Italia
!!!AGN: Mass (Paraphrase)
!!!AST: renaissance, vocal
!!!ASW: Prayer
!!!PWK: Masses, Book 7
!!!RNB: Cadence finals: D
!!!YOR: Le Opere Complete, v. 23, p. 1
!!!YOO: Rome, Italy: Fratelli Scalera
!!!END: 1992//
!!!EED: John Miller
!!!YEC: Copyright 2000, John Miller
!!!YEN: United States of America
!!!YEM: Rights to all derivative electronic formats reserved.
!!!YEM: Refer to licensing agreement for further details.
!!!YEM: This file must be accompanied by the licensing agreement.
!!!YEM: A copy of the licensing agreement may be found at http://www.music-cog.ohio-state.edu/HumdrumDatabases/Palestrina/license.txt
!!!EMD: converted to Humdrum by Bret Aarden
